Obsidian-SemiLight/actions/22s/kstars_hgrid.svg

<svg viewBox="0 0 22 22" xmlns="http://www.w3.org/2000/svg"><path d="m7.0292969 3-.703125 1.8085938c-1.1428258-.3439328-2.2590452-.8037415-3.3261719-1.3847657v1.3886719c.9327177.4649969 1.8919014.8575934 2.875 1.1582031l-1.4941406 3.8457031c-.4692795-.2140406-.9277777-.4589492-1.3808594-.7167968v1.4082026c.3087318.159084.6167933.321021.9316406.462891l-.9316406 2.398438v3.417968l.0546875-.140625c2.3067681 1.125432 4.7956941 1.744565 7.3066405 1.867188l.001953.486328h1.236328v-.464844c2.529832-.042325 5.051479-.586892 7.400391-1.644531v-3.703125l-.691406-1.78125c.234357-.088768.45988-.204678.691406-.302734v-1.3457035c-.377424.1729561-.754464.3459435-1.140625.4921875l-1.595703-4.1074219c.930605-.2495831 1.845601-.5722295 2.736328-.9648437v-1.3730469c-1.030185.4951999-2.095024.8937035-3.185547 1.1777344l-.771484-1.9824219h-1.337891l.878906 2.2558594c-.993901.1836939-2.00029.2801831-3.007812.2910156l-.00586-2.546875h-1.248046l.007812 2.5175781c-.9369085-.0563611-1.8711973-.1824318-2.7910155-.3886719l.828125-2.1289062zm.0546875 3.2949219c1.0694685.2502796 2.1564377.4002698 3.2480466.4609375l.011719 4.5859376c-1.63608-.121826-3.2581735-.471227-4.8144531-1.050781zm7.9570316.1347656 1.642578 4.2187505c-1.660711.49689-3.37837.748636-5.097656.742187l-.007813-4.6054688c1.16097-.0121052 2.31986-.1294896 3.462891-.3554687zm-9.9609379 5.0156245c1.7020608.634169 3.4770468 1.011483 5.2675779 1.134766l.011719 4.695313c-2.3567455-.124528-4.6888-.724706-6.8496094-1.796875zm12.0546879.359376 1.511718 3.878906c-2.233304 1.034504-4.636995 1.573146-7.050781 1.615234l-.007812-4.671875c1.871445.005629 3.741601-.272233 5.546875-.822265z" fill="#4d4d4d"/></svg>

<svg xmlns="http://www.w3.org/2000/svg" viewBox="0 0 22 22">
  <defs id="defs3051">
    <style type="text/css" id="current-color-scheme">
      .ColorScheme-Text {
        color:#4d4d4d;
      }
      </style>
  </defs>
 <path 
     style="fill:currentColor;fill-opacity:1;stroke:none" 
     d="M 7.0292969 3 L 6.3261719 4.8085938 C 5.1833461 4.464661 4.0671267 4.0048523 3 3.4238281 L 3 4.8125 C 3.9327177 5.2774969 4.8919014 5.6700934 5.875 5.9707031 L 4.3808594 9.8164062 C 3.9115799 9.6023656 3.4530817 9.357457 3 9.0996094 L 3 10.507812 C 3.3087318 10.666896 3.6167933 10.828833 3.9316406 10.970703 L 3 13.369141 L 3 16.787109 L 3.0546875 16.646484 C 5.3614556 17.771916 7.8503816 18.391049 10.361328 18.513672 L 10.363281 19 L 11.599609 19 L 11.599609 18.535156 C 14.129441 18.492831 16.651088 17.948264 19 16.890625 L 19 13.1875 L 18.308594 11.40625 C 18.542951 11.317482 18.768474 11.201572 19 11.103516 L 19 9.7578125 C 18.622576 9.9307686 18.245536 10.103756 17.859375 10.25 L 16.263672 6.1425781 C 17.194277 5.892995 18.109273 5.5703486 19 5.1777344 L 19 3.8046875 C 17.969815 4.2998874 16.904976 4.698391 15.814453 4.9824219 L 15.042969 3 L 13.705078 3 L 14.583984 5.2558594 C 13.590083 5.4395533 12.583694 5.5360425 11.576172 5.546875 L 11.570312 3 L 10.322266 3 L 10.330078 5.5175781 C 9.3931695 5.461217 8.4588807 5.3351463 7.5390625 5.1289062 L 8.3671875 3 L 7.0292969 3 z M 7.0839844 6.2949219 C 8.1534529 6.5452015 9.2404221 6.6951917 10.332031 6.7558594 L 10.34375 11.341797 C 8.70767 11.219971 7.0855765 10.87057 5.5292969 10.291016 L 7.0839844 6.2949219 z M 15.041016 6.4296875 L 16.683594 10.648438 C 15.022883 11.145328 13.305224 11.397074 11.585938 11.390625 L 11.578125 6.7851562 C 12.739095 6.773051 13.897985 6.6556666 15.041016 6.4296875 z M 5.0800781 11.445312 C 6.7821389 12.079481 8.5571249 12.456795 10.347656 12.580078 L 10.359375 17.275391 C 8.0026295 17.150863 5.670575 16.550685 3.5097656 15.478516 L 5.0800781 11.445312 z M 17.134766 11.804688 L 18.646484 15.683594 C 16.41318 16.718098 14.009489 17.25674 11.595703 17.298828 L 11.587891 12.626953 C 13.459336 12.632582 15.329492 12.35472 17.134766 11.804688 z "
     class="ColorScheme-Text"
     />
</svg>
